X:157
T:Conset Arglwyddes Tre-ffael - Lady Tre-ffael's Conceit
M:3/4
L:1/4
Q:90
C:Trad.
R:Waltz
K:G
B | E2 B | G>A B | A2 G | F>E ^D | E2 B | G>A
B | A G F | E2 :|| B/c/ | d2 d | d>c B | A2
A | A B ^c | d2 d | d =c B | A B ^c | d
2 d | B2 E | B>A G | A2 G | F>E ^D |
E2 B | G>A B | A G F | E2 ||
